X:1
T: John Robertson
C:
R:Strathspey
Q: 128
K:D
M:4/4
L:1/16
|:G2|FD3 F3A B3A G3B|cA3 c3e d3e f3g|a3f d3c BG3 g3B|AF3 G3E FD3 D3G|
FD3 F3A B3A G3B|cA3 c3e d3e f3g|a3f d3c BG3 g3B|AF3 G3E FD3 D2e2|
f3e df3 e3d ce3|d3c Bd3 c3A F4|B3A GB3 A3F d3F|G3E GFED CE3 E3G|
F3G AF3 G3A BG3|A3B ce3 d3e f3g|a3f d3c BG3 g3B|A3F G3E FD3 D2:|
